!!!OTL: DORT UNTEN GEHT MEIN TRAUERN AN
!!!ARE: Europa, Mitteleuropa, Deutschland, Hessen, Eisenroth a.d. Lahn
!!!SCT: E0695
!!!YEM: Copyright 1995, estate of Helmut Schaffrath.
**kern
*ICvox
*Ivox
*M3/4
*k[b-]
*F:
{8c
=1
8f
16a
16g
4.f
8a
=2
8g
8dd
4.cc}
{8b-
=3
8a
8cc
4.b-
8a
=4
4g
4f
8r}
{8cc
=5
8a
8cc
4.dd
8cc
=6
8b-
8dd
4.cc}
{8b-
=7
8a
8cc
4.b-
8a
=8
4g
4f
8r}
{8cc
=9
8a
8cc
4.dd
8cc
=10
8b-
8dd
4.cc}
{8b-
=11
8a
8cc
4.b-
8a
=12
4g
4f
8r}
==
!!!AGN: Liebes - Lied, Leid, Klage
!!!ONB: ESAC (Essen Associative Code) Database: ERK2
!!!AMT: simple triple
!!!AIN: vox
!!!EED: Helmut Schaffrath
!!!EEV: 1.0
*-
